packages/icons/src/emoji/svg/factory.svg

<svg width="120" height="120" viewBox="0 0 120 120" fill="none" xmlns="http://www.w3.org/2000/svg">
<path d="M17.7939 87.4688H102.385V104.278H17.7939V87.4688Z" fill="white"/>
<path d="M22.3126 47.8877L21.2907 41.0252C21.2907 41.0252 14.6439 37.4064 15.5532 29.6346C16.0407 25.4908 20.6907 21.8439 25.3689 22.4627C25.3689 22.4627 25.2001 14.9721 30.4595 11.3439C33.3282 9.37518 39.1314 7.74393 44.7657 10.5189C44.7657 10.5189 47.3064 2.53143 57.647 2.19393C67.9782 1.85643 71.7658 7.10643 71.7658 7.10643C71.7658 7.10643 75.197 0.150183 86.597 0.178308C97.1064 0.197058 104.531 7.97831 103.819 19.7814C103.313 28.0596 96.2626 35.2314 86.9626 36.0564C76.2751 37.0127 69.0564 29.8033 69.0564 29.8033C69.0564 29.8033 66.3939 36.3658 56.147 36.2814C47.6907 36.2158 43.4345 31.1252 43.4345 31.1252C43.4345 31.1252 38.5032 40.0596 29.822 34.5189C29.822 34.5189 27.3001 39.8346 23.897 41.3533L22.3126 47.8877Z" fill="#78A3AD"/>
<path d="M30.3939 83.7187L28.9783 40.0312C28.9644 39.5559 28.7656 39.1048 28.4242 38.7739C28.0827 38.443 27.6257 38.2583 27.1502 38.2593H17.4752C16.4908 38.2593 15.6752 39.0468 15.6471 40.0312L13.9971 91.153L30.3939 83.7187Z" fill="#ED6C30"/>
<path d="M109.621 66.675C109.021 66.3188 108.281 66.3094 107.671 66.6469L78.1777 83.025V68.3719C78.1777 67.6782 77.8121 67.0313 77.2027 66.675C76.6121 66.3188 75.8621 66.3094 75.2527 66.6469L45.759 83.025V68.3719C45.759 67.6782 45.384 67.0313 44.784 66.675C44.1934 66.3188 43.4434 66.3094 42.834 66.6469L10.4246 84.6469C9.79648 84.9938 9.41211 85.65 9.41211 86.3625V120H110.587V68.3625C110.587 67.6782 110.221 67.0313 109.621 66.675ZM35.4277 99.9844H23.1371V94.2H35.4277V99.9844ZM66.384 99.9844H54.0934V94.2H66.384V99.9844ZM97.3309 99.9844H85.0402V94.2H97.3309V99.9844Z" fill="#40C0E7"/>
</svg>

<svg xmlns="http://www.w3.org/2000/svg" fill="none" aria-hidden="true" data-slot="icon" viewBox="0 0 120 120"><path fill="#fff" d="M17.794 87.469h84.591v16.809H17.794z"/><path fill="#78A3AD" d="m22.313 47.888-1.022-6.863s-6.647-3.619-5.738-11.39c.488-4.144 5.138-7.791 9.816-7.172 0 0-.169-7.49 5.09-11.12 2.87-1.968 8.672-3.6 14.307-.824 0 0 2.54-7.988 12.881-8.325 10.331-.338 14.119 4.912 14.119 4.912S75.197.15 86.597.178c10.51.02 17.934 7.8 17.222 19.603-.506 8.279-7.556 15.45-16.856 16.275-10.688.957-17.907-6.253-17.907-6.253s-2.662 6.563-12.909 6.478c-8.456-.065-12.712-5.156-12.712-5.156s-4.932 8.935-13.613 3.394c0 0-2.522 5.316-5.925 6.834z"/><path fill="#ED6C30" d="M30.394 83.719 28.978 40.03a1.825 1.825 0 0 0-1.828-1.772h-9.675c-.984 0-1.8.788-1.828 1.772l-1.65 51.122z"/><path fill="#40C0E7" d="M109.621 66.675a1.96 1.96 0 0 0-1.95-.028L78.178 83.025V68.372c0-.694-.366-1.34-.975-1.697a1.96 1.96 0 0 0-1.95-.028L45.759 83.025V68.372c0-.694-.375-1.34-.975-1.697a1.96 1.96 0 0 0-1.95-.028l-32.41 18a1.96 1.96 0 0 0-1.012 1.715V120h101.175V68.363c0-.685-.366-1.332-.966-1.688m-74.193 33.31h-12.29V94.2h12.29zm30.956 0h-12.29V94.2h12.29zm30.947 0H85.04V94.2h12.29z"/></svg>
